X: 194
T:Tsur Chassidi
C:Chassidic 1980
O:Israel
M:4/4
L:1/8
Q:1/4=140
K:F#m
|:"F#m"CF2G AGGF     |AGGF "C#".G2.G2|"F#m"CF2G AGGF|[1AGF^E "F#m"F4   :|\
  [2 AGF^E "F#m" F3 B|:
  "C#"c3B c3B        |cBcB c4        |"Bm"B3A B3A   |"F#m"AGcA "C#"G4  ::
  cc2G "Bm"BAGF      |"C#"GGF^E G2G2 |cc2G "Bm"BAGF |"C#"GGF^E "F#m"F4 :|



